symbols/web/subject/materialsymbolsrounded/subject_grad200_40px.svg

<svg xmlns="http://www.w3.org/2000/svg" height="40" width="40"><path d="M7.833 32.833q-.75 0-1.271-.521-.52-.52-.52-1.229 0-.75.52-1.25.521-.5 1.271-.5h13.875q.709 0 1.23.521.52.521.52 1.229 0 .709-.52 1.229-.521.521-1.23.521Zm0-14.791q-.75 0-1.271-.521-.52-.521-.52-1.271 0-.708.52-1.208.521-.5 1.271-.5h24.375q.709 0 1.23.5.52.5.52 1.25 0 .708-.52 1.229-.521.521-1.23.521Zm0 7.416q-.75 0-1.271-.52-.52-.521-.52-1.271 0-.709.52-1.209.521-.5 1.271-.5h24.375q.709 0 1.23.5.52.5.52 1.25 0 .709-.52 1.23-.521.52-1.23.52Zm0-14.833q-.75 0-1.271-.521-.52-.521-.52-1.271 0-.708.52-1.208.521-.5 1.271-.5h24.375q.709 0 1.23.5.52.5.52 1.25 0 .708-.52 1.229-.521.521-1.23.521Z"/></svg>

<svg xmlns="http://www.w3.org/2000/svg" height="40" width="40"><path d="M7.833 32.833Q7.083 32.833 6.562 32.312Q6.042 31.792 6.042 31.083Q6.042 30.333 6.562 29.833Q7.083 29.333 7.833 29.333H21.708Q22.417 29.333 22.938 29.854Q23.458 30.375 23.458 31.083Q23.458 31.792 22.938 32.312Q22.417 32.833 21.708 32.833ZM7.833 18.042Q7.083 18.042 6.562 17.521Q6.042 17 6.042 16.25Q6.042 15.542 6.562 15.042Q7.083 14.542 7.833 14.542H32.208Q32.917 14.542 33.438 15.042Q33.958 15.542 33.958 16.292Q33.958 17 33.438 17.521Q32.917 18.042 32.208 18.042ZM7.833 25.458Q7.083 25.458 6.562 24.938Q6.042 24.417 6.042 23.667Q6.042 22.958 6.562 22.458Q7.083 21.958 7.833 21.958H32.208Q32.917 21.958 33.438 22.458Q33.958 22.958 33.958 23.708Q33.958 24.417 33.438 24.938Q32.917 25.458 32.208 25.458ZM7.833 10.625Q7.083 10.625 6.562 10.104Q6.042 9.583 6.042 8.833Q6.042 8.125 6.562 7.625Q7.083 7.125 7.833 7.125H32.208Q32.917 7.125 33.438 7.625Q33.958 8.125 33.958 8.875Q33.958 9.583 33.438 10.104Q32.917 10.625 32.208 10.625Z"/></svg>
